X:1
T:Be Strong (Hudnut)
T:Be Strong (Hudnut)
T:Theodore Edson Perkins
T:Wililam Herbert Hudnut, Sr., 1910, alt.
T:Public Domain Courtesy of the Cyber Hymnal™
C:Theodore Edson Perkins
Z:Public Domain
Z:Courtesy of the Cyber Hymnal™
%%score ( 1 2 ) ( 3 4 )
L:1/8
Q:1/4=98
M:4/4
K:Bb
V:1 treble 
V:2 treble 
V:3 bass 
V:4 bass 
V:1
 F2 G>A B2 B2 | [Ge]2 [_GB]2 !fermata![Fd]2 [Fd]>[Ac] | [GB]2 ([^FA]>[FA]) G2 [=Ec]>[GB] | %3
w: 1.~Quit you like men, be|strong, be strong; There’s a|bur- den~to * bear, there’s a|
w: 2.~Quit you like men, be|strong, be strong; There’s a|bat- tle~to * fight, there’s a|
w: 3.~Quit you like men, be|strong, be strong; There’s a|work to * do, there’s a|
w: 4.~Quit you like men, be|strong, be strong; There’s a|year of * grace, there’s a|
 ([FA]2 [=EG]>)[EG] F2 F>F | G2 F2 A2 F>F | G2 F2 B2 F2 | [FA]2 [FB]2 [Fc]2 [Fd]>[Fd] | %7
w: grief * to share; There’s a|heart that breaks ’neath a|load of care— But|fare ye forth with a|
w: wrong * to right; There’s a|God who bless- es the|good with might— So|fare ye forth with a|
w: world~to * make new; There’s a|call for men who are|brave and true— Speed|on! speed on with a|
w: God * to face, There’s an-|o- ther heat in the|great world race— Speed|on! speed on with a|
 [Ae]6 [EF]2 | [DB]2 [=EB]2 [Fd]2 [DB]>[Ec] | [DB]6 z2 |] %10
w: song, But|fare ye forth with a|song.|
w: song, So|fare ye forth with a|song.|
w: song, Speed|on! speed on with a|song.|
w: song, Speed|on! speed on with a|song.|
V:2
 F2 G>A B2 B2 | x8 | x4 G2 x2 | x4 F2 F>F | G2 F2 A2 F>F | G2 F2 B2 F2 | x8 | x8 | x8 | x8 |] %10
V:3
 F,2 G,>A, B,2 B,2 | [E,B,]2 [E,B,]2 !fermata![B,,B,]2 [D,A,]>[^F,D] | %2
 [G,D]2 ([A,D]>[A,D]) [B,D]2 [G,C]>[=E,C] | ([F,C]2 [C,C]>)[C,C] [F,A,]2 F,>F, | %4
 G,2 F,2 A,2 F,>F, | G,2 F,2 B,2 F,2 | [F,C]2 [F,D]2 [F,A,]2 [F,B,]>[F,B,] | [F,C]6 [F,A,]2 | %8
 [G,B,]2 [_G,B,]2 [F,B,]2 [B,,F,]>[B,,F,] | [B,,F,]6 z2 |] %10
V:4
 F,2 G,>A, B,2 B,2 | x8 | x8 | x6 F,>F, | G,2 F,2 A,2 F,>F, | G,2 F,2 B,2 F,2 | x8 | x8 | x8 | %9
 x8 |] %10

